22x22/apps/Alva.svg

<svg xmlns="http://www.w3.org/2000/svg" width="22" height="22" version="1.1">
 <circle style="opacity:0.2" cx="11" cy="11.5" r="10"/>
 <circle style="fill:#f4f4f7" cx="11" cy="11" r="10"/>
 <path style="opacity:0.1;fill-rule:evenodd" d="m 15.749667,10.5 c 0.201574,0 0.321559,0.224017 0.203973,0.384029 L 10.453542,18.39774 C 10.309561,18.589754 10,18.493748 10,18.256015 V 10.742304 C 10,10.609722 10.112785,10.5 10.249569,10.5 Z"/>
 <path style="opacity:0.2;fill:#f4f4f7" d="M 11,1 A 10,10 0 0 0 1,11 10,10 0 0 0 1.01075,11.291 10,10 0 0 1 11,1.5 10,10 0 0 1 20.9895,11.209 10,10 0 0 0 21,11 10,10 0 0 0 11,1 Z"/>
 <path style="fill:#ec0361;fill-rule:evenodd" d="m 15.749667,10 c 0.201574,0 0.321559,0.224017 0.203973,0.384029 L 10.453542,17.89774 C 10.309561,18.089754 10,17.993748 10,17.756015 V 10.242304 C 10,10.109722 10.112785,10 10.249569,10 Z"/>
 <path style="opacity:0.1;fill-rule:evenodd" d="M 11.748047,4.5000015 A 0.24000623,0.22857143 0 0 0 11.548828,4.6035171 L 6.046875,12.115234 C 5.926872,12.275234 6.0483945,12.5 6.25,12.5 h 5.5 C 11.886803,12.5 12,12.390384 12,12.257812 V 4.7441421 C 12,4.5932851 11.875251,4.5000015 11.748047,4.5000015 Z M 11,7.0449234 V 11.5 H 7.7382812 Z"/>
 <path style="fill:#5802cd;fill-rule:evenodd" d="M 11.748047,4.0000003 A 0.24000623,0.22857143 0 0 0 11.548828,4.1035159 L 6.046875,11.615234 C 5.926872,11.775234 6.0483945,12 6.25,12 h 5.5 C 11.886803,12 12,11.890384 12,11.757812 V 4.2441409 C 12,4.0932839 11.875251,4.0000003 11.748047,4.0000003 Z M 11,6.5449222 V 11 H 7.7382812 Z"/>
 <path style="fill:#51004d;fill-rule:evenodd" d="m 11,10 v 1 h -1 v 1 h 1.75 C 11.886803,12 12,11.890385 12,11.757812 V 10 Z"/>
</svg>

<svg xmlns="http://www.w3.org/2000/svg" width="22" height="22"><circle style="opacity:.2" cx="11" cy="11.5" r="10"/><circle style="fill:#f4f4f7" cx="11" cy="11" r="10"/><path style="opacity:.1;fill-rule:evenodd" d="M15.75 10.5c.201 0 .321.224.204.384l-5.5 7.514c-.144.192-.454.096-.454-.142v-7.514c0-.132.113-.242.25-.242z"/><path style="opacity:.2;fill:#f4f4f7" d="M11 1A10 10 0 0 0 1 11a10 10 0 0 0 .01.291A10 10 0 0 1 11 1.5a10 10 0 0 1 9.99 9.709A10 10 0 0 0 21 11 10 10 0 0 0 11 1z"/><path style="fill:#ec0361;fill-rule:evenodd" d="M15.75 10c.201 0 .321.224.204.384l-5.5 7.514c-.144.192-.454.096-.454-.142v-7.514c0-.132.113-.242.25-.242z"/><path style="opacity:.1;fill-rule:evenodd" d="M11.748 4.5a.24.229 0 0 0-.2.104l-5.501 7.511c-.12.16.001.385.203.385h5.5c.137 0 .25-.11.25-.242V4.744c0-.15-.125-.244-.252-.244zM11 7.045V11.5H7.738z"/><path style="fill:#5802cd;fill-rule:evenodd" d="M11.748 4a.24.229 0 0 0-.2.104l-5.501 7.511c-.12.16.001.385.203.385h5.5c.137 0 .25-.11.25-.242V4.244c0-.15-.125-.244-.252-.244zM11 6.545V11H7.738z"/><path style="fill:#51004d;fill-rule:evenodd" d="M11 10v1h-1v1h1.75c.137 0 .25-.11.25-.242V10z"/></svg>
